X:2
T:Holt-Rilen
N:From the county of Agder, south-west Norway
M:4/4
R:Engelska
S:jonas_liljestrom <consolamentum@spray.se> tradtunes 2005-6-15
K:D
|:D2FA d2d2|efed cBA2|(3BcBAG F2FG|ECEG FDDD|FDFA d2d2|efed cBAe|fdff
gecc|[1d2f2 d4:|[2d2f2 d2fe|:d2de c2cd|BGBd cAA2|(3BcBAG F2FG|ECEG
FDD2|FDFA d2d2|efed cBAe|fdff gecc|[1d2f2 d2fe:|[2d2f2 d4|||
